!!!!SEGMENT:pl-wtm--r-1582--001_stefani-jozef-marsz-zalobny-no-4-furioso.krn
!!!id: 18xx:2337
!!!COM: Stefani, Józef
!!!OTL: Marsz żałobny No. 4 – Furioso
!!!PDT:
!!!SMS-siglum: PL-Wtm
!!!SMS-shelfmark: R 1582
!!!NIFC-rismID: 1001115587
!!!URL-scan: http://repozytorium.nifc.pl/skany/pl-wtm-nut--r1582
!!!ONB-nifc: UWAGA: części: 1. Furioso (Introducjone) (prawa strona skanu 0004 wykreślona), 2. Adagio maestoso (Marsz żałobny), od skanu 0005
!!!SMS-variant:
!!!SMS-altvar:
**kern	**dynam	**kern	**dynam	**kern	**dynam	**kern	**dynam	**kern	**dynam	**kern	**kern	**dynam	**kern	**dynam	**kern	**dynam	**kern	**kern	**dynam	**kern	**dynam	**kern	**kern	**dynam	**kern	**dynam	**kern	**dynam	**kern	**dynam	**kern	**dynam
*part18	*part18	*part17	*part17	*part16	*part16	*part15	*part15	*part14	*part14	*part13	*part12	*part12	*part11	*part11	*part10	*part10	*part9	*part8	*part8	*part7	*part7	*part6	*part5	*part5	*part4	*part4	*part3	*part3	*part2	*part2	*part1	*part1
*staff18	*	*staff17	*	*staff16	*	*staff15	*	*staff14	*	*staff13	*staff12	*	*staff11	*	*staff10	*	*staff9	*staff8	*	*staff7	*	*staff6	*staff5	*	*staff4	*	*staff3	*	*staff2	*	*staff1	*
*I"C: Baſsi	*	*I"Violoncelli	*	*I"Viole	*	*I"Violini	*	*I"Violini	*	*I"Tromboni	*I"Tromboni	*	*I"Banda	*	*I"in F. B. Timpani	*	*I"Trombe in B.	*I"Trombe in C a piston	*	*I"Fagotti	*	*I"Corni in Es	*I"in B. Corni	*	*I"in B. Clarinetti	*	*I"Oboe	*	*I"Picolo	*	*I"Flauto	*
*clefF4	*	*clefF4	*	*clefC3	*	*clefG2	*	*clefG2	*	*clefF4	*clefC4	*	*clefF4	*	*clefF4	*	*clefG2	*clefG2	*	*clefF4	*	*clefG2	*clefG2	*	*clefG2	*	*clefG2	*	*clefG2	*	*clefG2	*
*ITrd0c0	*	*	*	*	*	*	*	*	*	*	*	*	*	*	*	*	*ITrd1c2	*	*	*	*	*ITrd-2c-3	*ITrd1c2	*	*ITrd1c2	*	*	*	*ITrd0c0	*	*	*
*k[b-e-]	*	*k[b-e-]	*	*k[b-e-]	*	*k[b-e-]	*	*k[b-e-]	*	*k[b-e-]	*k[b-e-]	*	*k[b-e-]	*	*k[b-e-]	*	*k[b-e-]	*k[b-e-]	*	*k[b-e-]	*	*k[b-e-]	*k[b-e-]	*	*k[b-e-]	*	*k[b-e-]	*	*k[b-e-]	*	*k[b-e-]	*
*B-:	*	*B-:	*	*B-:	*	*B-:	*	*B-:	*	*B-:	*B-:	*	*B-:	*	*B-:	*	*	*B-:	*	*B-:	*	*B-:	*	*	*	*	*B-:	*	*B-:	*	*B-:	*
*M4/4	*	*M4/4	*	*M4/4	*	*M4/4	*	*M4/4	*	*M4/4	*M4/4	*	*M4/4	*	*M4/4	*	*M4/4	*M4/4	*	*M4/4	*	*M4/4	*M4/4	*	*M4/4	*	*M4/4	*	*M4/4	*	*M4/4	*
*met(c)	*	*met(c)	*	*met(c)	*	*met(c)	*	*met(c)	*	*met(c)	*met(c)	*	*met(c)	*	*met(c)	*	*met(c)	*met(c)	*	*met(c)	*	*met(c)	*met(c)	*	*met(c)	*	*met(c)	*	*met(c)	*	*met(c)	*
=1	=1	=1	=1	=1	=1	=1	=1	=1	=1	=1	=1	=1	=1	=1	=1	=1	=1	=1	=1	=1	=1	=1	=1	=1	=1	=1	=1	=1	=1	=1	=1	=1
*2\right	*	*2\right	*	*2\right	*	*2\right	*	*2\right	*	*2\right	*2\right	*	*2\right	*	*2\right	*	*2\right	*2\right	*	*2\right	*	*2\right	*2\right	*	*2\right	*	*2\right	*	*2\right	*	*2\right	*
!	!	!	!	!	!	!	!	!LO:TX:t:t=P:problem:złe renderowanie - w źródle tylko jedno określenie "Violini"	!	!	!	!	!	!	!	!	!	!	!LO:DY:b:rj	!	!	!	!	!LO:DY:b:rj	!	!	!	!	!	!	!LO:TX:a:i:t=Allegro\nFurioso.	!
!LO:TX:b:t=P:problem:źródło niekompletne (niewidoczna partia najniższego instrumentu)	!	!	!	!	!	!	!	!	!	!	!	!	!	!	!LO:TX:t=P:problem:na początku partii dwie ćwierćnutki: F, BB-, określające strój kotłów	!	!	!	!	!	!	!	!	!	!	!	!	!	!	!	!LO:TX:i:a:t=Introducjone	!
!	!	!	!	!	!	!	!	!LO:TX:t:t=P:problem:słowo "Viole" skreślone i poprawione na "Violini"	!	!	!LO:TX:b:t:t=P:problem:słowo "Violini" skreślone i poprawione na "Tromboni"	!	!	!	!	!	!	!	!	!	!	!	!	!	!	!	!	!	!	!	!LO:TX:t=P:problem:all\right:global	!
1r	.	1r	.	1r	.	1r	.	1r	.	1r	1r	.	1r	.	1r	.	1r	4.f/	f	1r	.	4.ff\	4.f/	f	1r	.	1r	.	1r	.	1r	.
.	.	.	.	.	.	.	.	.	.	.	.	.	.	.	.	.	.	16f/LL	.	.	.	16ff\LL	16f/LL	.	.	.	.	.	.	.	.	.
.	.	.	.	.	.	.	.	.	.	.	.	.	.	.	.	.	.	16f/JJ	.	.	.	16ff\JJ	16f/JJ	.	.	.	.	.	.	.	.	.
*	*	*	*	*	*	*	*	*	*	*	*	*	*	*	*	*	*	*tremolo	*	*	*	*tremolo	*tremolo	*	*	*	*	*	*	*	*	*
.	.	.	.	.	.	.	.	.	.	.	.	.	.	.	.	.	.	8f/L	.	.	.	8ff\L	8f/L	.	.	.	.	.	.	.	.	.
.	.	.	.	.	.	.	.	.	.	.	.	.	.	.	.	.	.	8f/	.	.	.	8ff\	8f/	.	.	.	.	.	.	.	.	.
.	.	.	.	.	.	.	.	.	.	.	.	.	.	.	.	.	.	8f/	.	.	.	8ff\	8f/	.	.	.	.	.	.	.	.	.
.	.	.	.	.	.	.	.	.	.	.	.	.	.	.	.	.	.	8f/J	.	.	.	8ff\J	8f/J	.	.	.	.	.	.	.	.	.
*	*	*	*	*	*	*	*	*	*	*	*	*	*	*	*	*	*	*Xtremolo	*	*	*	*Xtremolo	*Xtremolo	*	*	*	*	*	*	*	*	*
=2	=2	=2	=2	=2	=2	=2	=2	=2	=2	=2	=2	=2	=2	=2	=2	=2	=2	=2	=2	=2	=2	=2	=2	=2	=2	=2	=2	=2	=2	=2	=2	=2
*	*	*	*	*	*	*	*	*	*	*	*	*	*^	*	*	*	*	*	*	*	*	*	*	*	*	*	*	*	*	*	*	*
*	*	*	*	*	*	*	*	*	*	*	*	*	*clefG2	*clefF4	*	*	*	*	*	*	*	*	*	*	*	*	*	*	*	*	*	*	*
*tremolo	*	*tremolo	*	*tremolo	*	*tremolo	*	*tremolo	*	*	*	*	*tremolo	*2\right	*	*tremolo	*	*	*	*	*	*	*	*	*	*	*	*	*	*	*	*	*
!	!	!	!	!	!	!	!	!	!	!	!	!	!LO:TX:a:i:t=Triangolo:rj	!	!	!	!	!	!	!	!	!LO:DY:a:rj	!	!	!	!	!LO:DY:a:rj	!	!	!	!	!	!LO:DY:b:rj
!	!	!	!	!	!	!	!	!	!	!	!	!	!LO:TX:b:i:t=G. C.:rj	!	!LO:DY:b:rj	!	!	!	!	!	!	!	!	!	!	!	!	!	!	!	!	!	!
!	!	!	!	!	!LO:DY:b:rj	!	!LO:DY:b:rj	!	!LO:DY:b:rj	!	!	!LO:DY:b:rj	!LO:TX:t=P:problem:przed nutami dwa klucze: wiolinowy dla trójkąta i basowy dla gran casa	!	!	!	!	!	!	!	!	!	!	!	!	!	!	!	!	!	!	!	!
!	!LO:DY:b:rj	!LO:TX:t=P:problem:w partii wiolonczeli zapisane tylko pauzy w pierwszym i dwóch ostatnich taktach, reszta partii przekopiowana z kontrabasu	!LO:DY:b:rj	!	!	!	!	!	!	!	!	!	!	!	!	!	!	!	!	!	!	!	!	!	!	!	!	!	!	!	!	!	!
32F\LLL	f	32F\LLLyy	f	32d-XLLL 32F/	f	32ffLLL 32b-\	f	32bb-LLL 32dd-X\	f	4.B-\	4.B-/	f	32Ree/LLL	2Ra\	f	32F\LLL	.	4.b-\	1b- 1d-X	.	1d-X 1F	f	1ff 1b-	1dd-X 1f	.	1ff 1b-	f	1bb- 1dd-X	.	1bb-	.	1ddd-X	f
32F\	.	32F\yy	.	32d- 32F/	.	32ff 32b-\	.	32bb- 32dd-\	.	.	.	.	32Ree/	.	.	32F\	.	.	.	.	.	.	.	.	.	.	.	.	.	.	.	.	.
32F\	.	32F\yy	.	32d- 32F/	.	32ff 32b-\	.	32bb- 32dd-\	.	.	.	.	32Ree/	.	.	32F\	.	.	.	.	.	.	.	.	.	.	.	.	.	.	.	.	.
32F\	.	32F\yy	.	32d- 32F/	.	32ff 32b-\	.	32bb- 32dd-\	.	.	.	.	32Ree/	.	.	32F\	.	.	.	.	.	.	.	.	.	.	.	.	.	.	.	.	.
32F\	.	32F\yy	.	32d- 32F/	.	32ff 32b-\	.	32bb- 32dd-\	.	.	.	.	32Ree/	.	.	32F\	.	.	.	.	.	.	.	.	.	.	.	.	.	.	.	.	.
32F\	.	32F\yy	.	32d- 32F/	.	32ff 32b-\	.	32bb- 32dd-\	.	.	.	.	32Ree/	.	.	32F\	.	.	.	.	.	.	.	.	.	.	.	.	.	.	.	.	.
32F\	.	32F\yy	.	32d- 32F/	.	32ff 32b-\	.	32bb- 32dd-\	.	.	.	.	32Ree/	.	.	32F\	.	.	.	.	.	.	.	.	.	.	.	.	.	.	.	.	.
32F\	.	32F\yy	.	32d- 32F/	.	32ff 32b-\	.	32bb- 32dd-\	.	.	.	.	32Ree/	.	.	32F\	.	.	.	.	.	.	.	.	.	.	.	.	.	.	.	.	.
32F\	.	32F\yy	.	32d- 32F/	.	32ff 32b-\	.	32bb- 32dd-\	.	.	.	.	32Ree/	.	.	32F\	.	.	.	.	.	.	.	.	.	.	.	.	.	.	.	.	.
32F\	.	32F\yy	.	32d- 32F/	.	32ff 32b-\	.	32bb- 32dd-\	.	.	.	.	32Ree/	.	.	32F\	.	.	.	.	.	.	.	.	.	.	.	.	.	.	.	.	.
32F\	.	32F\yy	.	32d- 32F/	.	32ff 32b-\	.	32bb- 32dd-\	.	.	.	.	32Ree/	.	.	32F\	.	.	.	.	.	.	.	.	.	.	.	.	.	.	.	.	.
32F\	.	32F\yy	.	32d- 32F/	.	32ff 32b-\	.	32bb- 32dd-\	.	.	.	.	32Ree/	.	.	32F\	.	.	.	.	.	.	.	.	.	.	.	.	.	.	.	.	.
32F\	.	32F\yy	.	32d- 32F/	.	32ff 32b-\	.	32bb- 32dd-\	.	16F\LL	16F/LL	.	32Ree/	.	.	32F\	.	16f/LL	.	.	.	.	.	.	.	.	.	.	.	.	.	.	.
32F\	.	32F\yy	.	32d- 32F/	.	32ff 32b-\	.	32bb- 32dd-\	.	.	.	.	32Ree/	.	.	32F\	.	.	.	.	.	.	.	.	.	.	.	.	.	.	.	.	.
32F\	.	32F\yy	.	32d- 32F/	.	32ff 32b-\	.	32bb- 32dd-\	.	16F\JJ	16F/JJ	.	32Ree/	.	.	32F\	.	16f/JJ	.	.	.	.	.	.	.	.	.	.	.	.	.	.	.
32F\	.	32F\yy	.	32d- 32F/	.	32ff 32b-\	.	32bb- 32dd-\	.	.	.	.	32Ree/	.	.	32F\	.	.	.	.	.	.	.	.	.	.	.	.	.	.	.	.	.
*	*	*	*	*	*	*	*	*	*	*2\right	*	*	*	*	*	*	*	*2\right	*	*	*	*	*	*	*	*	*	*	*	*	*	*	*
*	*	*	*	*	*	*	*	*	*	*tremolo	*tremolo	*	*	*	*	*	*	*tremolo	*	*	*	*	*	*	*	*	*	*	*	*	*	*	*
32F\	.	32F\yy	.	32d- 32F/	.	32ff 32b-\	.	32bb- 32dd-\	.	8B-\L	8B-/L	.	32Ree/	2rD	.	32F\	.	8b-\L	.	.	.	.	.	.	.	.	.	.	.	.	.	.	.
32F\	.	32F\yy	.	32d- 32F/	.	32ff 32b-\	.	32bb- 32dd-\	.	.	.	.	32Ree/	.	.	32F\	.	.	.	.	.	.	.	.	.	.	.	.	.	.	.	.	.
32F\	.	32F\yy	.	32d- 32F/	.	32ff 32b-\	.	32bb- 32dd-\	.	.	.	.	32Ree/	.	.	32F\	.	.	.	.	.	.	.	.	.	.	.	.	.	.	.	.	.
32F\	.	32F\yy	.	32d- 32F/	.	32ff 32b-\	.	32bb- 32dd-\	.	.	.	.	32Ree/	.	.	32F\	.	.	.	.	.	.	.	.	.	.	.	.	.	.	.	.	.
32F\	.	32F\yy	.	32d- 32F/	.	32ff 32b-\	.	32bb- 32dd-\	.	8B-\	8B-/	.	32Ree/	.	.	32F\	.	8b-\	.	.	.	.	.	.	.	.	.	.	.	.	.	.	.
32F\	.	32F\yy	.	32d- 32F/	.	32ff 32b-\	.	32bb- 32dd-\	.	.	.	.	32Ree/	.	.	32F\	.	.	.	.	.	.	.	.	.	.	.	.	.	.	.	.	.
32F\	.	32F\yy	.	32d- 32F/	.	32ff 32b-\	.	32bb- 32dd-\	.	.	.	.	32Ree/	.	.	32F\	.	.	.	.	.	.	.	.	.	.	.	.	.	.	.	.	.
32F\	.	32F\yy	.	32d- 32F/	.	32ff 32b-\	.	32bb- 32dd-\	.	.	.	.	32Ree/	.	.	32F\	.	.	.	.	.	.	.	.	.	.	.	.	.	.	.	.	.
32F\	.	32F\yy	.	32d- 32F/	.	32ff 32b-\	.	32bb- 32dd-\	.	8B-\	8B-/	.	32Ree/	.	.	32F\	.	8b-\	.	.	.	.	.	.	.	.	.	.	.	.	.	.	.
32F\	.	32F\yy	.	32d- 32F/	.	32ff 32b-\	.	32bb- 32dd-\	.	.	.	.	32Ree/	.	.	32F\	.	.	.	.	.	.	.	.	.	.	.	.	.	.	.	.	.
32F\	.	32F\yy	.	32d- 32F/	.	32ff 32b-\	.	32bb- 32dd-\	.	.	.	.	32Ree/	.	.	32F\	.	.	.	.	.	.	.	.	.	.	.	.	.	.	.	.	.
32F\	.	32F\yy	.	32d- 32F/	.	32ff 32b-\	.	32bb- 32dd-\	.	.	.	.	32Ree/	.	.	32F\	.	.	.	.	.	.	.	.	.	.	.	.	.	.	.	.	.
32F\	.	32F\yy	.	32d- 32F/	.	32ff 32b-\	.	32bb- 32dd-\	.	8B-\J	8B-/J	.	32Ree/	.	.	32F\	.	8b-\J	.	.	.	.	.	.	.	.	.	.	.	.	.	.	.
32F\	.	32F\yy	.	32d- 32F/	.	32ff 32b-\	.	32bb- 32dd-\	.	.	.	.	32Ree/	.	.	32F\	.	.	.	.	.	.	.	.	.	.	.	.	.	.	.	.	.
32F\	.	32F\yy	.	32d- 32F/	.	32ff 32b-\	.	32bb- 32dd-\	.	.	.	.	32Ree/	.	.	32F\	.	.	.	.	.	.	.	.	.	.	.	.	.	.	.	.	.
32F\JJJ	.	32F\JJJyy	.	32d-JJJ 32F/	.	32ffJJJ 32b-\	.	32bb-JJJ 32dd-\	.	.	.	.	32Ree/JJJ	.	.	32F\JJJ	.	.	.	.	.	.	.	.	.	.	.	.	.	.	.	.	.
*	*	*	*	*	*	*	*	*	*	*Xtremolo	*Xtremolo	*	*	*	*	*	*	*Xtremolo	*	*	*	*	*	*	*	*	*	*	*	*	*	*	*
=3	=3	=3	=3	=3	=3	=3	=3	=3	=3	=3	=3	=3	=3	=3	=3	=3	=3	=3	=3	=3	=3	=3	=3	=3	=3	=3	=3	=3	=3	=3	=3	=3	=3
*	*	*	*	*	*	*	*	*	*	*	*^	*	*	*	*	*	*	*	*	*	*	*	*^	*	*	*	*	*	*	*	*	*	*
4F\	.	4F\yy	.	4c 4F/	.	4ff 4a\	.	4aa 4cc\	.	4F\	4c/	4A\	.	4Ree/	1rBB	.	4F\	.	4f/	4a 4c/	.	4c 4F\	.	4ff/	4ff\	4cc 4f/	.	4ff 4a\	.	4aa 4cc\	.	4aa\	.	4ccc\	.
4r	.	4ryy	.	4r	.	4r	.	4r	.	4r	4r	4rBByy	.	4rG	.	.	4r	.	4r	8r	.	4r	.	8r	4reyy	8r	.	4r	.	4r	.	4r	.	4r	.
.	.	.	.	.	.	.	.	.	.	.	.	.	.	.	.	.	.	.	.	16f/LL	.	.	.	16ff\LL	.	16f/LL	.	.	.	.	.	.	.	.	.
.	.	.	.	.	.	.	.	.	.	.	.	.	.	.	.	.	.	.	.	16f/JJ	.	.	.	16ff\JJ	.	16f/JJ	.	.	.	.	.	.	.	.	.
*	*	*	*	*	*	*	*	*	*	*	*	*	*	*	*	*	*	*	*	*tremolo	*	*	*	*tremolo	*	*tremolo	*	*	*	*	*	*	*	*	*
2r	.	2ryy	.	2r	.	2r	.	2r	.	2r	2r	2rBByy	.	2rG	.	.	2r	.	2r	8f/L	.	2r	.	8ff\L	2reyy	8f/L	.	2r	.	2r	.	2r	.	2r	.
.	.	.	.	.	.	.	.	.	.	.	.	.	.	.	.	.	.	.	.	8f/	.	.	.	8ff\	.	8f/	.	.	.	.	.	.	.	.	.
.	.	.	.	.	.	.	.	.	.	.	.	.	.	.	.	.	.	.	.	8f/	.	.	.	8ff\	.	8f/	.	.	.	.	.	.	.	.	.
.	.	.	.	.	.	.	.	.	.	.	.	.	.	.	.	.	.	.	.	8f/J	.	.	.	8ff\J	.	8f/J	.	.	.	.	.	.	.	.	.
*	*	*	*	*	*	*	*	*	*	*	*	*	*	*	*	*	*	*	*	*Xtremolo	*	*	*	*Xtremolo	*	*Xtremolo	*	*	*	*	*	*	*	*	*
*	*	*	*	*	*	*	*	*	*	*	*v	*v	*	*	*	*	*	*	*	*	*	*	*	*v	*v	*	*	*	*	*	*	*	*	*	*
=4	=4	=4	=4	=4	=4	=4	=4	=4	=4	=4	=4	=4	=4	=4	=4	=4	=4	=4	=4	=4	=4	=4	=4	=4	=4	=4	=4	=4	=4	=4	=4	=4	=4
32F\LLL	.	32F\LLLyy	.	32d-XLLL 32F/	.	32ffLLL 32b-\	.	32bb-LLL 32dd-X\	.	4.B-\	4.B-/	.	32Ree/LLL	2Ra\	.	32F\LLL	.	4.b-\	1b- 1d-X	.	1d-X 1F	.	1ff 1b-	1dd-X 1f	.	1ff 1b-	.	1bb- 1dd-X	.	1bb-	.	1ddd-X	.
32F\	.	32F\yy	.	32d- 32F/	.	32ff 32b-\	.	32bb- 32dd-\	.	.	.	.	32Ree/	.	.	32F\	.	.	.	.	.	.	.	.	.	.	.	.	.	.	.	.	.
32F\	.	32F\yy	.	32d- 32F/	.	32ff 32b-\	.	32bb- 32dd-\	.	.	.	.	32Ree/	.	.	32F\	.	.	.	.	.	.	.	.	.	.	.	.	.	.	.	.	.
32F\	.	32F\yy	.	32d- 32F/	.	32ff 32b-\	.	32bb- 32dd-\	.	.	.	.	32Ree/	.	.	32F\	.	.	.	.	.	.	.	.	.	.	.	.	.	.	.	.	.
32F\	.	32F\yy	.	32d- 32F/	.	32ff 32b-\	.	32bb- 32dd-\	.	.	.	.	32Ree/	.	.	32F\	.	.	.	.	.	.	.	.	.	.	.	.	.	.	.	.	.
32F\	.	32F\yy	.	32d- 32F/	.	32ff 32b-\	.	32bb- 32dd-\	.	.	.	.	32Ree/	.	.	32F\	.	.	.	.	.	.	.	.	.	.	.	.	.	.	.	.	.
32F\	.	32F\yy	.	32d- 32F/	.	32ff 32b-\	.	32bb- 32dd-\	.	.	.	.	32Ree/	.	.	32F\	.	.	.	.	.	.	.	.	.	.	.	.	.	.	.	.	.
32F\	.	32F\yy	.	32d- 32F/	.	32ff 32b-\	.	32bb- 32dd-\	.	.	.	.	32Ree/	.	.	32F\	.	.	.	.	.	.	.	.	.	.	.	.	.	.	.	.	.
32F\	.	32F\yy	.	32d- 32F/	.	32ff 32b-\	.	32bb- 32dd-\	.	.	.	.	32Ree/	.	.	32F\	.	.	.	.	.	.	.	.	.	.	.	.	.	.	.	.	.
32F\	.	32F\yy	.	32d- 32F/	.	32ff 32b-\	.	32bb- 32dd-\	.	.	.	.	32Ree/	.	.	32F\	.	.	.	.	.	.	.	.	.	.	.	.	.	.	.	.	.
32F\	.	32F\yy	.	32d- 32F/	.	32ff 32b-\	.	32bb- 32dd-\	.	.	.	.	32Ree/	.	.	32F\	.	.	.	.	.	.	.	.	.	.	.	.	.	.	.	.	.
32F\	.	32F\yy	.	32d- 32F/	.	32ff 32b-\	.	32bb- 32dd-\	.	.	.	.	32Ree/	.	.	32F\	.	.	.	.	.	.	.	.	.	.	.	.	.	.	.	.	.
32F\	.	32F\yy	.	32d- 32F/	.	32ff 32b-\	.	32bb- 32dd-\	.	16F\LL	16F/LL	.	32Ree/	.	.	32F\	.	16f/LL	.	.	.	.	.	.	.	.	.	.	.	.	.	.	.
32F\	.	32F\yy	.	32d- 32F/	.	32ff 32b-\	.	32bb- 32dd-\	.	.	.	.	32Ree/	.	.	32F\	.	.	.	.	.	.	.	.	.	.	.	.	.	.	.	.	.
32F\	.	32F\yy	.	32d- 32F/	.	32ff 32b-\	.	32bb- 32dd-\	.	16F\JJ	16F/JJ	.	32Ree/	.	.	32F\	.	16f/JJ	.	.	.	.	.	.	.	.	.	.	.	.	.	.	.
32F\	.	32F\yy	.	32d- 32F/	.	32ff 32b-\	.	32bb- 32dd-\	.	.	.	.	32Ree/	.	.	32F\	.	.	.	.	.	.	.	.	.	.	.	.	.	.	.	.	.
*	*	*	*	*	*	*	*	*	*	*tremolo	*tremolo	*	*	*	*	*	*	*tremolo	*	*	*	*	*	*	*	*	*	*	*	*	*	*	*
32F\	.	32F\yy	.	32d- 32F/	.	32ff 32b-\	.	32bb- 32dd-\	.	8B-\L	8B-/L	.	32Ree/	2rD	.	32F\	.	8b-\L	.	.	.	.	.	.	.	.	.	.	.	.	.	.	.
32F\	.	32F\yy	.	32d- 32F/	.	32ff 32b-\	.	32bb- 32dd-\	.	.	.	.	32Ree/	.	.	32F\	.	.	.	.	.	.	.	.	.	.	.	.	.	.	.	.	.
32F\	.	32F\yy	.	32d- 32F/	.	32ff 32b-\	.	32bb- 32dd-\	.	.	.	.	32Ree/	.	.	32F\	.	.	.	.	.	.	.	.	.	.	.	.	.	.	.	.	.
32F\	.	32F\yy	.	32d- 32F/	.	32ff 32b-\	.	32bb- 32dd-\	.	.	.	.	32Ree/	.	.	32F\	.	.	.	.	.	.	.	.	.	.	.	.	.	.	.	.	.
32F\	.	32F\yy	.	32d- 32F/	.	32ff 32b-\	.	32bb- 32dd-\	.	8B-\	8B-/	.	32Ree/	.	.	32F\	.	8b-\	.	.	.	.	.	.	.	.	.	.	.	.	.	.	.
32F\	.	32F\yy	.	32d- 32F/	.	32ff 32b-\	.	32bb- 32dd-\	.	.	.	.	32Ree/	.	.	32F\	.	.	.	.	.	.	.	.	.	.	.	.	.	.	.	.	.
32F\	.	32F\yy	.	32d- 32F/	.	32ff 32b-\	.	32bb- 32dd-\	.	.	.	.	32Ree/	.	.	32F\	.	.	.	.	.	.	.	.	.	.	.	.	.	.	.	.	.
32F\	.	32F\yy	.	32d- 32F/	.	32ff 32b-\	.	32bb- 32dd-\	.	.	.	.	32Ree/	.	.	32F\	.	.	.	.	.	.	.	.	.	.	.	.	.	.	.	.	.
32F\	.	32F\yy	.	32d- 32F/	.	32ff 32b-\	.	32bb- 32dd-\	.	8B-\	8B-/	.	32Ree/	.	.	32F\	.	8b-\	.	.	.	.	.	.	.	.	.	.	.	.	.	.	.
32F\	.	32F\yy	.	32d- 32F/	.	32ff 32b-\	.	32bb- 32dd-\	.	.	.	.	32Ree/	.	.	32F\	.	.	.	.	.	.	.	.	.	.	.	.	.	.	.	.	.
32F\	.	32F\yy	.	32d- 32F/	.	32ff 32b-\	.	32bb- 32dd-\	.	.	.	.	32Ree/	.	.	32F\	.	.	.	.	.	.	.	.	.	.	.	.	.	.	.	.	.
32F\	.	32F\yy	.	32d- 32F/	.	32ff 32b-\	.	32bb- 32dd-\	.	.	.	.	32Ree/	.	.	32F\	.	.	.	.	.	.	.	.	.	.	.	.	.	.	.	.	.
32F\	.	32F\yy	.	32d- 32F/	.	32ff 32b-\	.	32bb- 32dd-\	.	8B-\J	8B-/J	.	32Ree/	.	.	32F\	.	8b-\J	.	.	.	.	.	.	.	.	.	.	.	.	.	.	.
32F\	.	32F\yy	.	32d- 32F/	.	32ff 32b-\	.	32bb- 32dd-\	.	.	.	.	32Ree/	.	.	32F\	.	.	.	.	.	.	.	.	.	.	.	.	.	.	.	.	.
32F\	.	32F\yy	.	32d- 32F/	.	32ff 32b-\	.	32bb- 32dd-\	.	.	.	.	32Ree/	.	.	32F\	.	.	.	.	.	.	.	.	.	.	.	.	.	.	.	.	.
32F\JJJ	.	32F\JJJyy	.	32d-JJJ 32F/	.	32ffJJJ 32b-\	.	32bb-JJJ 32dd-\	.	.	.	.	32Ree/JJJ	.	.	32F\JJJ	.	.	.	.	.	.	.	.	.	.	.	.	.	.	.	.	.
*	*	*	*	*	*	*	*	*	*	*Xtremolo	*Xtremolo	*	*	*	*	*	*	*Xtremolo	*	*	*	*	*	*	*	*	*	*	*	*	*	*	*
!!LO:PB:g=original
=5	=5	=5	=5	=5	=5	=5	=5	=5	=5	=5	=5	=5	=5	=5	=5	=5	=5	=5	=5	=5	=5	=5	=5	=5	=5	=5	=5	=5	=5	=5	=5	=5	=5
*	*	*	*	*	*	*	*	*	*	*	*^	*	*	*	*	*	*	*	*	*	*^	*	*^	*	*	*	*	*	*	*	*	*	*
!	!	!	!	!	!	!	!	!	!	!	!	!	!	!	!	!	!	!	!	!	!	!	!	!	!	!	!	!	!	!	!	!	!	!	!LO:TX:t=P:problem:fragment 5-10 wpisany na wklejce, o 1 takt wydłużony w stosunku do analogicznego fragmentu oryginalnego, przekreślonego niebieską kredką	!
8F\	.	8F\yy	.	8c 8F/	.	8ff 8a\	.	8aa 8cc\	.	8F\	8e-/	8c\	.	8Ree/	8Ra\	.	8F\	.	8f/	8a 8c/	.	8c 8F\	8F\yy	.	8ff/	8ff\	8cc 8f/	.	8ff 8a\	.	8aa 8cc\	.	8aa\	.	8ccc\	.
8r	.	8ryy	.	8r	.	8r	.	(<16a/LL	.	8r	8r	8rBByy	.	8rD	8ryy	.	8r	.	8r	8r	.	8r	8rEEyy	.	8r	8reyy	8r	.	(>16a\LL	.	8ryy	.	8ryy	.	(>16aa\LL	.
.	.	.	.	.	.	.	.	16b-/JJ	.	.	.	.	.	.	.	.	.	.	.	.	.	.	.	.	.	.	.	.	16b-\JJ	.	.	.	.	.	16bb-\JJ	.
4r	.	4ryy	.	4r	.	4r	.	16bn/LL	.	4r	4r	4rBByy	.	4rD	4ryy	.	4r	.	4r	4r	.	4r	4rEEyy	.	4r	4reyy	4r	.	16bX\LL	.	4ryy	.	4ryy	.	16bbn\LL	.
.	.	.	.	.	.	.	.	16cc/	.	.	.	.	.	.	.	.	.	.	.	.	.	.	.	.	.	.	.	.	16cc\	.	.	.	.	.	16ccc\	.
.	.	.	.	.	.	.	.	16cc#X/	.	.	.	.	.	.	.	.	.	.	.	.	.	.	.	.	.	.	.	.	16cc#X\	.	.	.	.	.	16ccc#X\	.
.	.	.	.	.	.	.	.	16dd/JJ)	.	.	.	.	.	.	.	.	.	.	.	.	.	.	.	.	.	.	.	.	16dd\JJ	.	.	.	.	.	16ddd\JJ	.
8F\	.	8F\yy	.	8a 8c\	.	8cc 8f/	.	8ee-\L	.	8F\	8e- 8c\	2rBByy	.	8Ree/	8Ra\	.	8F\	.	8f/	8a 8c/	.	8A/	8F\	.	8ff/	8ee-\	8cc 8f/	.	8ee-\L)	.	2ryy	.	2ryy	.	8eee-\L)	.
!	!	!	!	!	!	!	!	!LO:TX:a:t=P:problem:kasownik dopisany	!	!	!	!	!	!	!	!	!	!	!	!	!	!	!	!	!	!	!	!	!	!	!	!	!	!	!	!
8r	.	8ryy	.	8r	.	8r	.	(>16ccn\L	.	8r	8r	.	.	8rD	8ryy	.	8r	.	8r	8r	.	8r	8rEEyy	.	8r	8reyy	8r	.	(>16ccny\L	.	.	.	.	.	(>16cccny\L	.
.	.	.	.	.	.	.	.	16cc#X\JJ	.	.	.	.	.	.	.	.	.	.	.	.	.	.	.	.	.	.	.	.	16cc#X\JJ	.	.	.	.	.	16ccc#X\JJ	.
4r	.	4ryy	.	4r	.	4r	.	16dd\LL	.	4r	4r	.	.	4rD	4ryy	.	4r	.	4r	4r	.	4r	4rEEyy	.	4r	4reyy	4r	.	16dd\LL	.	.	.	.	.	16ddd\LL	.
.	.	.	.	.	.	.	.	16ee-\	.	.	.	.	.	.	.	.	.	.	.	.	.	.	.	.	.	.	.	.	16ee-\	.	.	.	.	.	16eee-\	.
.	.	.	.	.	.	.	.	16een\	.	.	.	.	.	.	.	.	.	.	.	.	.	.	.	.	.	.	.	.	16eeX\	.	.	.	.	.	16eeen\	.
.	.	.	.	.	.	.	.	16ff\JJ	.	.	.	.	.	.	.	.	.	.	.	.	.	.	.	.	.	.	.	.	16ff\JJ	.	.	.	.	.	16fff\JJ	.
*	*	*	*	*	*	*	*	*	*	*	*v	*v	*	*	*	*	*	*	*	*	*	*	*	*	*	*	*	*	*	*	*	*	*	*	*	*
=6	=6	=6	=6	=6	=6	=6	=6	=6	=6	=6	=6	=6	=6	=6	=6	=6	=6	=6	=6	=6	=6	=6	=6	=6	=6	=6	=6	=6	=6	=6	=6	=6	=6	=6	=6
!	!	!	!	!	!	!	!	!	!	!	!	!	!LO:TX:t=P:problem:takty 6-7 zapisane skrótowo znakiem repetycji	!	!	!	!	!	!	!	!	!	!	!	!	!	!	!	!	!	!	!	!	!	!
8F\	.	8F\yy	.	8a 8c\	.	8ee- 8f/	.	8gg-X\L)	.	8F\	8e- 8c\	.	8Ree/yy	8Ra\yy	.	8F\	.	8f/	8a 8c/	.	8A/	8F\	.	8ff/	8ee-\	8cc 8f/	.	8gg-X\L)	.	1ryy	.	1ryy	.	8ggg-X\L)	.
8r	.	8ryy	.	8r	.	8r	.	(>16a\L	.	8r	8r	.	8rDyy	8ryy	.	8r	.	8r	8r	.	8r	8rEEyy	.	8r	8reyy	8r	.	(>16a\L	.	.	.	.	.	(>16aa\L	.
.	.	.	.	.	.	.	.	16b-\JJ	.	.	.	.	.	.	.	.	.	.	.	.	.	.	.	.	.	.	.	16b-\JJ	.	.	.	.	.	16bb-\JJ	.
4r	.	4ryy	.	4r	.	4r	.	16bn\LL	.	4r	4r	.	4rDyy	4ryy	.	4r	.	4r	4r	.	4r	4rEEyy	.	4r	4reyy	4r	.	16bX\LL	.	.	.	.	.	16bbn\LL	.
.	.	.	.	.	.	.	.	16cc\	.	.	.	.	.	.	.	.	.	.	.	.	.	.	.	.	.	.	.	16cc\	.	.	.	.	.	16ccc\	.
.	.	.	.	.	.	.	.	16cc#X\	.	.	.	.	.	.	.	.	.	.	.	.	.	.	.	.	.	.	.	16cc#X\	.	.	.	.	.	16ccc#X\	.
.	.	.	.	.	.	.	.	16dd\JJ)	.	.	.	.	.	.	.	.	.	.	.	.	.	.	.	.	.	.	.	16dd\JJ	.	.	.	.	.	16ddd\JJ)	.
8F\	.	8F\yy	.	8a 8c\	.	8cc 8f/	.	8ee-\L	.	8F\	8e- 8c\	.	8Ree/yy	8Ra\yy	.	8F\	.	8f/	8a 8c/	.	8A/	8F\	.	8ff/	8ee-\	8cc 8f/	.	8ee-\L)	.	.	.	.	.	8eee-\L	.
8r	.	8ryy	.	8r	.	8r	.	(>16ccny\L	.	8r	8r	.	8rDyy	8ryy	.	8r	.	8r	8r	.	8r	8rEEyy	.	8r	8reyy	8r	.	(>16ccny\L	.	.	.	.	.	(>16cccny\L	.
.	.	.	.	.	.	.	.	16cc#X\JJ	.	.	.	.	.	.	.	.	.	.	.	.	.	.	.	.	.	.	.	16cc#X\JJ	.	.	.	.	.	16ccc#X\JJ	.
4r	.	4ryy	.	4r	.	4r	.	16dd\LL	.	4r	4r	.	4rDyy	4ryy	.	4r	.	4r	4r	.	4r	4rEEyy	.	4r	4reyy	4r	.	16dd\LL	.	.	.	.	.	16ddd\LL	.
.	.	.	.	.	.	.	.	16ee-\	.	.	.	.	.	.	.	.	.	.	.	.	.	.	.	.	.	.	.	16ee-\	.	.	.	.	.	16eee-\	.
.	.	.	.	.	.	.	.	16een\	.	.	.	.	.	.	.	.	.	.	.	.	.	.	.	.	.	.	.	16eeX\	.	.	.	.	.	16eeen\	.
.	.	.	.	.	.	.	.	16ff\JJ	.	.	.	.	.	.	.	.	.	.	.	.	.	.	.	.	.	.	.	16ff\JJ	.	.	.	.	.	16fff\JJ	.
=7	=7	=7	=7	=7	=7	=7	=7	=7	=7	=7	=7	=7	=7	=7	=7	=7	=7	=7	=7	=7	=7	=7	=7	=7	=7	=7	=7	=7	=7	=7	=7	=7	=7	=7	=7
8F\	.	8F\yy	.	8a 8c\	.	8ee- 8f/	.	8gg-X\L)	.	8F\	8e- 8c\	.	8Ree/yy	8Ra\yy	.	8F\	.	8f/	8a 8c/	.	8A/	8F\	.	8ff/	8ee-\	8cc 8f/	.	8gg-X\L)	.	1ryy	.	1ryy	.	8ggg-X\L)	.
8r	.	8ryy	.	8r	.	8r	.	(>16cc\L	.	8r	8r	.	8rDyy	8ryy	.	8r	.	8r	8r	.	8r	8rEEyy	.	8r	8reyy	8r	.	(>16cc\L	.	.	.	.	.	(>16ccc\L	.
.	.	.	.	.	.	.	.	16cc#X\JJ	.	.	.	.	.	.	.	.	.	.	.	.	.	.	.	.	.	.	.	16cc#X\JJ	.	.	.	.	.	16ccc#X\JJ	.
4r	.	4ryy	.	4r	.	4r	.	16dd\LL	.	4r	4r	.	4rDyy	4ryy	.	4r	.	4r	4r	.	4r	4rEEyy	.	4r	4reyy	4r	.	16dd\LL	.	.	.	.	.	16ddd\LL	.
.	.	.	.	.	.	.	.	16ee-\	.	.	.	.	.	.	.	.	.	.	.	.	.	.	.	.	.	.	.	16ee-\	.	.	.	.	.	16eee-\	.
.	.	.	.	.	.	.	.	16een\	.	.	.	.	.	.	.	.	.	.	.	.	.	.	.	.	.	.	.	16eeX\	.	.	.	.	.	16eeen\	.
.	.	.	.	.	.	.	.	16ff\JJ)	.	.	.	.	.	.	.	.	.	.	.	.	.	.	.	.	.	.	.	16ff\JJ)	.	.	.	.	.	16fff\JJ)	.
*	*	*	*	*	*	*	*	*rep	*	*	*	*	*	*	*	*	*	*	*	*	*	*	*	*	*	*	*	*rep	*	*	*	*	*	*rep	*
8F\	.	8F\yy	.	8a 8c\	.	8ee- 8f/	.	8gg-X\L	.	8F\	8e- 8c\	.	8Ree/yy	8Ra\yy	.	8F\	.	8f/	8a 8c/	.	8A/	8F\	.	8ff/	8ee-\	8cc 8f/	.	8gg-X\L	.	.	.	.	.	8ggg-X\L	.
8r	.	8ryy	.	8r	.	8r	.	(>16ccny\L	.	8r	8r	.	8rDyy	8ryy	.	8r	.	8r	8r	.	8r	8rEEyy	.	8r	8reyy	8r	.	(>16ccny\L	.	.	.	.	.	(>16cccny\L	.
.	.	.	.	.	.	.	.	16cc#X\JJ	.	.	.	.	.	.	.	.	.	.	.	.	.	.	.	.	.	.	.	16cc#X\JJ	.	.	.	.	.	16ccc#X\JJ	.
4r	.	4ryy	.	4r	.	4r	.	16dd\LL	.	4r	4r	.	4rDyy	4ryy	.	4r	.	4r	4r	.	4r	4rEEyy	.	4r	4reyy	4r	.	16dd\LL	.	.	.	.	.	16ddd\LL	.
.	.	.	.	.	.	.	.	16ee-X\	.	.	.	.	.	.	.	.	.	.	.	.	.	.	.	.	.	.	.	16ee-y\	.	.	.	.	.	16eee-y\	.
.	.	.	.	.	.	.	.	16een\	.	.	.	.	.	.	.	.	.	.	.	.	.	.	.	.	.	.	.	16eeX\	.	.	.	.	.	16eeen\	.
.	.	.	.	.	.	.	.	16ff\JJ)	.	.	.	.	.	.	.	.	.	.	.	.	.	.	.	.	.	.	.	16ff\JJ)	.	.	.	.	.	16fff\JJ)	.
*	*	*	*	*	*	*	*	*Xrep	*	*	*	*	*	*	*	*	*	*	*	*	*	*	*	*	*	*	*	*Xrep	*	*	*	*	*	*Xrep	*
*	*	*	*	*	*	*	*	*	*	*	*	*	*v	*v	*	*	*	*	*	*	*v	*v	*	*	*	*	*	*	*	*	*	*	*	*	*
!!LO:PB:g=original
=8	=8	=8	=8	=8	=8	=8	=8	=8	=8	=8	=8	=8	=8	=8	=8	=8	=8	=8	=8	=8	=8	=8	=8	=8	=8	=8	=8	=8	=8	=8	=8	=8	=8
!	!	!	!	!	!	!	!	!	!	!	!	!	!	!	!	!	!	!	!	!	!	!	!	!	!	!LO:TX:a:i:t=Lamentuoso	!	!	!	!	!	!	!
8F\	.	8F\yy	.	8a 8c\	.	8ee- 8f/	.	8gg-X\	.	8F\	8e- 8c\	.	1r	.	8F\	.	8f/	8a 8c/	.	(>4c 4A\	.	8ff/	8ee-\	8cc 8f/	.	8gg-X\	.	1ryy	.	1ryy	.	8ggg-X\	.
8r	.	8ryy	.	8r	.	8r	.	8r	.	8r	8r	.	.	.	8r	.	8r	8r	.	.	.	8r	8reyy	8r	.	4gg- 4ee-^<\	.	.	.	.	.	8r	.
4r	.	4ryy	.	4r	.	4r	.	4r	.	4r	4r	.	.	.	4r	.	4r	4r	.	4d-X 4B-\	.	4r	4reyy	4r	.	.	.	.	.	.	.	4r	.
.	.	.	.	.	.	.	.	.	.	.	.	.	.	.	.	.	.	.	.	.	.	.	.	.	.	4ff 4dd-X^<\	.	.	.	.	.	.	.
2r	.	2ryy	.	2r	.	2r	.	2r	.	2r	2r	.	.	.	2r	.	2r	2r	.	4e- 4c\	.	2r	2reyy	2r	.	.	.	.	.	.	.	2r	.
.	.	.	.	.	.	.	.	.	.	.	.	.	.	.	.	.	.	.	.	.	.	.	.	.	.	4ee- 4cc^<\	.	.	.	.	.	.	.
.	.	.	.	.	.	.	.	.	.	.	.	.	.	.	.	.	.	.	.	4f 4d-X\)	.	.	.	.	.	.	.	.	.	.	.	.	.
.	.	.	.	.	.	.	.	.	.	.	.	.	.	.	.	.	.	.	.	.	.	.	.	.	.	(>8dd-X 8b-\	.	.	.	.	.	.	.
*	*	*	*	*	*	*	*	*	*	*	*	*	*	*	*	*	*	*	*	*	*	*v	*v	*	*	*	*	*	*	*	*	*	*
=9	=9	=9	=9	=9	=9	=9	=9	=9	=9	=9	=9	=9	=9	=9	=9	=9	=9	=9	=9	=9	=9	=9	=9	=9	=9	=9	=9	=9	=9	=9	=9	=9
*	*	*	*	*	*	*	*	*	*	*	*	*	*	*	*	*	*	*	*	*	*	*	*	*	*^	*	*	*	*	*	*	*
!	!	!	!	!	!	!	!	!	!	!	!	!	!	!	!	!	!	!	!	!	!	!	!	!	!LO:TX:a:i:t=Adagio	!	!	!	!	!	!	!LO:TX:a:i:t=Adagio	!
1r	.	1r	.	1r	.	1r	.	1r	.	1r	1r	.	1ryy	.	1r	.	1r	1r	.	8g-X 8e-\	.	1r	1r	.	8cc 8a\)	4f\yy	.	1r	.	1r	.	1r	.
.	.	.	.	.	.	.	.	.	.	.	.	.	.	.	.	.	.	.	.	8r	.	.	.	.	8r	.	.	.	.	.	.	.	.
*	*	*	*	*	*	*	*	*	*	*	*	*	*	*	*	*	*	*	*	*2\right	*	*	*	*	*	*2\right	*	*	*	*	*	*	*
!	!	!	!	!	!	!	!	!	!	!	!	!	!	!	!	!	!	!	!	!LO:S:s=1:note:problem:note-level slur	!	!	!	!	!	!	!	!	!	!	!	!	!
!	!	!	!	!	!	!	!	!	!	!	!	!	!	!	!	!	!	!	!	!LO:S:s=2:note:problem:note-level slur	!	!	!	!	!	!	!	!	!	!	!	!	!
.	.	.	.	.	.	.	.	.	.	.	.	.	.	.	.	.	.	.	.	(>2g- (>2e-^<\	.	.	.	.	(>2cc/	2a^<\	.	.	.	.	.	.	.
!	!	!	!	!	!	!	!	!	!	!	!	!	!	!	!	!	!	!	!	!LO:S:s=1:note:problem:note-level slur	!	!	!	!	!	!	!	!	!	!	!	!	!
!	!	!	!	!	!	!	!	!	!	!	!	!	!	!	!	!	!	!	!	!LO:S:s=2:note:problem:note-level slur	!	!	!	!	!	!	!	!	!	!	!	!	!
.	.	.	.	.	.	.	.	.	.	.	.	.	.	.	.	.	.	.	.	4gn) 4en\)	.	.	.	.	4b- 4g-X/)	4rByy	.	.	.	.	.	.	.
=10	=10	=10	=10	=10	=10	=10	=10	=10	=10	=10	=10	=10	=10	=10	=10	=10	=10	=10	=10	=10	=10	=10	=10	=10	=10	=10	=10	=10	=10	=10	=10	=10	=10
*	*	*	*	*	*	*	*	*	*	*	*	*	*	*	*	*	*^	*	*	*	*	*^	*	*	*	*	*	*	*	*	*	*	*
2r	.	2r	.	2.ryy	.	2.ryy	.	2r	.	2r	2r	.	2.ryy	.	2r	.	2r	2rByy	2r	.	[>2f\	.	2r	2reyy	2r	.	(>4.b-/	(>4.f\	.	2r	.	2r	.	2r	.
.	.	.	.	.	.	.	.	.	.	.	.	.	.	.	.	.	.	.	.	.	.	.	.	.	.	.	8cc/)	8a\)	.	.	.	.	.	.	.
!	!	!	!	!	!	!	!	!	!	!	!	!LO:DY:b:rj	!	!	!	!LO:DY:b:rj	!	!	!	!LO:DY:b:rj	!	!	!	!	!	!LO:DY:b:rj	!	!	!	!	!LO:DY:a:rj	!	!	!LO:TX:a:i:t=Attacca Marcia.	!LO:DY:b:rj
4r	.	4r	.	.	.	.	.	4r	.	4F\	4f 4A\	f	.	.	4F\	f	4f/	4f\	4a 4c/	f	4f] 4F\	.	4ff/	4ff\	4cc 4f/	f	4cc/	4a\	.	4aa 4ff\	f	4fff\	.	4fff\	f
*	*	*	*	*	*	*	*	*	*	*	*	*	*	*	*	*	*v	*v	*	*	*	*	*v	*v	*	*	*v	*v	*	*	*	*	*	*	*
==	==	==	==	==	==	==	==	==	==	==	==	==	==	==	==	==	==	==	==	==	==	==	==	==	==	==	==	==	==	==	==	==
*-	*-	*-	*-	*-	*-	*-	*-	*-	*-	*-	*-	*-	*-	*-	*-	*-	*-	*-	*-	*-	*-	*-	*-	*-	*-	*-	*-	*-	*-	*-	*-	*-
!!!system-decoration: [{(s1,s2)}s3,s4{(s5,s6)}(s7){(s8,s9)}(s10,s11){(s12,s13)}{(s14,s15),s16}{(s17,s18)}]
!!!RDF**kern: | = vertical stroke
!!!RDF**kern: > = above
!!!RDF**kern: < = below
!!!ENC: Mateusz Solarz
!!!END: 2021-06-07
!!!EED: Antoni Szymański
!!!EST: 2021-06-13
